packages/foundations/assets/icons/functional/images/date & time/clock_28.svg

<svg width="28" height="28" viewBox="0 0 28 28" fill="none" xmlns="http://www.w3.org/2000/svg">
<g clip-path="url(#clip0_185_670)">
<path fill-rule="evenodd" clip-rule="evenodd" d="M14 1.75C20.754 1.75 26.25 7.24614 26.25 14C26.25 20.7539 20.754 26.25 14 26.25C7.24614 26.25 1.75 20.7539 1.75 14C1.75 7.24614 7.24614 1.75 14 1.75ZM14 3.5C8.20312 3.5 3.5 8.20312 3.5 14C3.5 19.7969 8.20312 24.5 14 24.5C19.7969 24.5 24.5 19.7969 24.5 14C24.5 8.20312 19.7969 3.5 14 3.5ZM13.125 14.1094V7C13.125 6.50781 13.5078 6.125 14 6.125C14.4375 6.125 14.875 6.50781 14.875 7V13.6446L18.129 16.871C18.2862 17.0153 18.3618 17.2033 18.3618 17.4052C18.3618 17.7966 18.0206 18.3947 17.4801 18.3947C17.2565 18.3947 17.0369 18.2947 16.8711 18.1289L13.3711 14.6289C13.2344 14.4922 13.1524 14.3007 13.125 14.1094Z" fill="#1A1C1F"/>
</g>
<defs>
<clipPath id="clip0_185_670">
<rect width="28" height="28" fill="white"/>
</clipPath>
</defs>
</svg>

<svg xmlns="http://www.w3.org/2000/svg" width="28" height="28" fill="none"><g clip-path="url(#a)"><path fill="#1A1C1F" fill-rule="evenodd" d="M14 1.75c6.754 0 12.25 5.496 12.25 12.25S20.754 26.25 14 26.25 1.75 20.754 1.75 14 7.246 1.75 14 1.75m0 1.75C8.203 3.5 3.5 8.203 3.5 14S8.203 24.5 14 24.5 24.5 19.797 24.5 14 19.797 3.5 14 3.5m-.875 10.61V7c0-.492.383-.875.875-.875.438 0 .875.383.875.875v6.645l3.254 3.226a.7.7 0 0 1 .233.534c0 .392-.341.99-.882.99a.87.87 0 0 1-.609-.266l-3.5-3.5a.93.93 0 0 1-.246-.52" clip-rule="evenodd"/></g><defs><clipPath id="a"><path fill="#fff" d="M0 0h28v28H0z"/></clipPath></defs></svg>
